X:134 
T:Mist on the River* (hornpipe), The 
S:Grier MS (gan ainm)
B:CRE4.219 
F:file ID: cre.4/134mist_r
Q:150
L:1/8
M:4/4
R:hornpipe
K:G % source key D
dc|B2G2 G2BA|G2E2 E2FG|ABcd ecAG|FAGE D2Bc|
dcAF G2BA|G2E2 E2FG|ABcd ecAF|GdBd G2 :|
EF|GdBF GdBG|e3d c3d|e2c2 A2G2|FAGE DAGF|
GdBF GdBG|e3d c3d|e2c2 A2GF|GdBd G2 :|

%%%

